communes/4307.svg

<?xml version="1.0" encoding="UTF-8"?>
<!DOCTYPE svg  PUBLIC '-//W3C//DTD SVG 1.0//EN'  'http://www.w3.org/TR/2001/REC-SVG-20010904/DTD/svg10.dtd'>
<svg width="687" height="768" version="1.0" viewBox="-2.3812 -2.3812 84.138 94.038" xmlns="http://www.w3.org/2000/svg">
<defs>
<clipPath id="b">
<path d="m354.48 210.24h63.71v-71.64h-63.71v71.64z"/>
</clipPath>
<clipPath id="a">
<path d="m354.48 210.24h63.71v-71.64h-63.71v71.64z"/>
</clipPath>
</defs>
<g transform="translate(-866.03 -202.01)">
<g transform="matrix(1.25 0 0 1.25 422.79 28.623)" clip-path="url(#b)">
<path d="m354.59 138.71h63.5v39.68 1.62l-0.17 1.62-0.17 1.57-0.28 1.57-0.39 1.57-0.4 1.51-0.5 1.46-0.56 1.45-0.67 1.4-0.67 1.34-0.78 1.34-0.79 1.29-0.89 1.23-0.96 1.23-1.01 1.13-1.05 1.12-1.07 1.06-1.18 0.95-1.17 0.95-1.29 0.9-1.29 0.84-1.29 0.72-1.4 0.73-1.4 0.62-1.45 0.55-1.46 0.51-1.51 0.45-1.52 0.33-1.56 0.28-1.62 0.23-1.57 0.11-1.68 0.06-1.63-0.06-1.62-0.11-1.57-0.23-1.56-0.28-1.52-0.33-1.51-0.45-1.51-0.51-1.4-0.55-1.4-0.62-1.4-0.73-1.34-0.72-1.29-0.84-1.23-0.9-2.36-1.9-1.05-1.06-1.07-1.12-1.01-1.13-0.95-1.23-0.9-1.23-0.79-1.29-0.78-1.34-0.72-1.34-0.62-1.4-0.56-1.45-0.5-1.46-0.45-1.51-0.34-1.57-0.28-1.57-0.22-1.57-0.12-1.62-0.05-1.62v-39.68z" fill-rule="evenodd"/>
</g>
<g transform="matrix(1.25 0 0 1.25 422.79 28.623)" clip-path="url(#a)" fill-rule="evenodd" stroke-linecap="round" stroke-linejoin="round" stroke-miterlimit="10" stroke-width=".12">
<path d="m359.8 193h53.13l-1.06 1.73-1.12 1.63-1.23 1.57-1.34 1.5-1.4 1.34-1.52 1.3-1.62 1.22-1.68 1.07-1.74 1.01-0.89 0.45-0.9 0.39-0.95 0.39-0.95 0.33-1.9 0.68-1.02 0.22-1 0.23-1 0.21-1.02 0.18-2.12 0.22-1.07 0.06h-1.06-1.07l-1.06-0.06-1.01-0.11-1.06-0.11-1-0.18-1.02-0.21-1-0.23-1.01-0.22-0.96-0.34-1-0.34-0.89-0.33-0.96-0.39-0.9-0.39-0.95-0.45-1.73-1.01-1.68-1.07-1.57-1.22-1.52-1.3-1.45-1.34-1.28-1.5-1.24-1.57-1.18-1.63-1-1.73z" fill="#094" stroke="#094"/>
<path d="m411.32 162.83h1.73l-0.06-13.15-3.19-2.58-9.74-0.06h-6.77l-3.2-0.05-0.05-2.97-2.13-0.05-0.06 3.02-11.93 0.05-1.73-1.28-2.36-1.84h-1.73-3.86-5.6v1.56l0.06 1.51h-1.57v2.3h28.72l-0.05 4.53-1.74 0.06 0.05 3.63h12.72v-3.75h-1.85-1.24-0.56l1.91-4.42 14.11 0.06 0.12 13.43zm-13.62-3.52 1.01-1.35-12.37-0.06 1.06 1.41h10.3zm0.12 32.73-0.17-32.34h-10.08l0.06 7.33-8.06-0.06-1.35 2.07 9.46 0.06v8.62l-0.05 7.5-0.06 6.77 0.06 0.05h-4.03l0.5-0.33 0.5-0.45 0.51-0.56 0.5-0.66 0.78-1.46 0.23-0.79 0.06-0.39v-0.39l0.05-10.58-19.43 0.06v10.41l0.11 0.89 0.29 0.79 0.33 0.73 0.39 0.61 0.5 0.62 0.51 0.55 1.01 0.95h-11.14l-0.79-1.61-0.62-1.69-0.61-1.67-0.45-1.74-0.33-1.74-0.29-1.78-0.16-1.8-0.06-1.79v-38.11h60.69v38.11l-0.05 1.79-0.11 1.8-0.28 1.78-0.39 1.74-0.45 1.74-0.56 1.67-0.67 1.69-0.73 1.61h-15.62z" fill="#fcdb00" stroke="#fcdb00"/>
<path d="m389.86 149.23v4.59h3.81l1.96-4.59h-5.77z" fill="#fcdb00" stroke="#fcdb00"/>
</g>
</g>
</svg>

<?xml version="1.0" encoding="UTF-8" standalone="no"?>
<!DOCTYPE svg PUBLIC "-//W3C//DTD SVG 1.0//EN" "http://www.w3.org/TR/2001/REC-SVG-20010904/DTD/svg10.dtd">
<!-- Created with Inkscape (http://www.inkscape.org/) by Marsupilami -->
<svg
   xmlns:svg="http://www.w3.org/2000/svg"
   xmlns="http://www.w3.org/2000/svg"
   version="1.0"
   width="687"
   height="768"
   viewBox="-2.38125 -2.38125 84.1375 94.037502"
   id="svg6895">
  <defs
     id="defs6897">
    <clipPath
       id="clipPath6303">
      <path
         d="M 354.48,210.24 L 418.19,210.24 L 418.19,138.6 L 354.48,138.6 L 354.48,210.24 z"
         id="path6305" />
    </clipPath>
    <clipPath
       id="clipPath6315">
      <path
         d="M 354.48,210.24 L 418.19,210.24 L 418.19,138.6 L 354.48,138.6 L 354.48,210.24 z"
         id="path6317" />
    </clipPath>
  </defs>
  <g
     transform="translate(-866.02679,-202.0104)"
     id="layer1">
    <g
       transform="matrix(1.25,0,0,1.25,422.78929,28.622897)"
       clip-path="url(#clipPath6303)"
       id="g6301">
      <g
         id="g6307">
        <path
           d="M 354.59,138.71 L 418.09,138.71 L 418.09,178.39 L 418.09,178.39 L 418.09,180.01 L 417.92,181.63 L 417.75,183.2 L 417.47,184.77 L 417.08,186.34 L 416.68,187.85 L 416.18,189.31 L 415.62,190.76 L 414.95,192.16 L 414.28,193.5 L 413.5,194.84 L 412.71,196.13 L 411.82,197.36 L 410.86,198.59 L 409.85,199.72 L 408.8,200.84 L 407.73,201.9 L 406.55,202.85 L 405.38,203.8 L 404.09,204.7 L 402.8,205.54 L 401.51,206.26 L 400.11,206.99 L 398.71,207.61 L 397.26,208.16 L 395.8,208.67 L 394.29,209.12 L 392.77,209.45 L 391.21,209.73 L 389.59,209.96 L 388.02,210.07 L 386.34,210.13 L 386.34,210.13 L 384.71,210.07 L 383.09,209.96 L 381.52,209.73 L 379.96,209.45 L 378.44,209.12 L 376.93,208.67 L 375.42,208.16 L 374.02,207.61 L 372.62,206.99 L 371.22,206.26 L 369.88,205.54 L 368.59,204.7 L 367.36,203.8 L 366.18,202.85 L 365,201.9 L 363.95,200.84 L 362.88,199.72 L 361.87,198.59 L 360.92,197.36 L 360.02,196.13 L 359.23,194.84 L 358.45,193.5 L 357.73,192.16 L 357.11,190.76 L 356.55,189.31 L 356.05,187.85 L 355.6,186.34 L 355.26,184.77 L 354.98,183.2 L 354.76,181.63 L 354.64,180.01 L 354.59,178.39 L 354.59,138.71 z"
           id="path6309"
           style="fill:#000000;fill-opacity:1;fill-rule:evenodd;stroke:none" />
      </g>
    </g>
    <g
       transform="matrix(1.25,0,0,1.25,422.78929,28.622897)"
       clip-path="url(#clipPath6315)"
       id="g6313">
      <path
         d="M 359.8,193 L 412.93,193 L 412.93,193 L 411.87,194.73 L 410.75,196.36 L 409.52,197.93 L 408.18,199.43 L 406.78,200.77 L 405.26,202.07 L 403.64,203.29 L 401.96,204.36 L 400.22,205.37 L 399.33,205.82 L 398.43,206.21 L 397.48,206.6 L 396.53,206.93 L 395.58,207.27 L 394.63,207.61 L 393.61,207.83 L 392.61,208.06 L 391.61,208.27 L 390.59,208.45 L 389.53,208.56 L 388.47,208.67 L 387.4,208.73 L 386.34,208.73 L 386.34,208.73 L 385.27,208.73 L 384.21,208.67 L 383.2,208.56 L 382.14,208.45 L 381.14,208.27 L 380.12,208.06 L 379.12,207.83 L 378.11,207.61 L 377.15,207.27 L 376.15,206.93 L 375.26,206.6 L 374.3,206.21 L 373.4,205.82 L 372.45,205.37 L 370.72,204.36 L 369.04,203.29 L 367.47,202.07 L 365.95,200.77 L 364.5,199.43 L 363.22,197.93 L 361.98,196.36 L 360.8,194.73 L 359.8,193 L 359.8,193 z"
         id="path6319"
         style="fill:#009944;fill-opacity:1;fill-rule:evenodd;stroke:#009944;stroke-width:0.12;stroke-linecap:round;stroke-linejoin:round;stroke-miterlimit:10;stroke-dasharray:none;stroke-opacity:1" />
      <path
         d="M 411.32,162.83 L 413.05,162.83 L 412.99,149.68 L 409.8,147.1 L 409.8,147.1 L 400.06,147.04 L 393.29,147.04 L 390.09,146.99 L 390.04,144.02 L 387.91,143.97 L 387.85,146.99 L 375.92,147.04 L 375.92,147.04 L 374.19,145.76 L 371.83,143.92 L 371.83,143.92 L 370.1,143.92 L 366.24,143.92 L 360.64,143.92 L 360.64,143.92 L 360.64,145.48 L 360.7,146.99 L 359.13,146.99 L 359.13,149.29 L 359.13,149.29 L 387.85,149.29 L 387.8,153.82 L 386.06,153.88 L 386.11,157.51 L 398.83,157.51 L 398.83,153.76 L 398.83,153.76 L 396.98,153.76 L 395.74,153.76 L 395.18,153.76 L 395.18,153.76 L 397.09,149.34 L 411.2,149.4 L 411.32,162.83 z M 397.7,159.31 L 398.71,157.96 L 386.34,157.9 L 387.4,159.31 L 397.7,159.31 z M 397.82,192.04 L 397.65,159.7 L 387.57,159.7 L 387.63,167.03 L 387.63,167.03 L 379.57,166.97 L 378.22,169.04 L 387.68,169.1 L 387.68,169.1 L 387.68,177.72 L 387.63,185.22 L 387.57,191.99 L 387.57,191.99 L 387.63,192.04 L 383.6,192.04 L 383.6,192.04 L 384.1,191.71 L 384.6,191.26 L 385.11,190.7 L 385.61,190.04 L 386,189.31 L 386.39,188.58 L 386.62,187.79 L 386.68,187.4 L 386.68,187.01 L 386.68,187.01 L 386.73,176.43 L 367.3,176.49 L 367.3,186.9 L 367.3,186.9 L 367.41,187.79 L 367.7,188.58 L 368.03,189.31 L 368.42,189.92 L 368.92,190.54 L 369.43,191.09 L 370.44,192.04 L 359.3,192.04 L 359.3,192.04 L 358.51,190.43 L 357.89,188.74 L 357.28,187.07 L 356.83,185.33 L 356.5,183.59 L 356.21,181.81 L 356.05,180.01 L 355.99,178.22 L 355.99,140.11 L 416.68,140.11 L 416.68,178.22 L 416.68,178.22 L 416.63,180.01 L 416.52,181.81 L 416.24,183.59 L 415.85,185.33 L 415.4,187.07 L 414.84,188.74 L 414.17,190.43 L 413.44,192.04 L 397.82,192.04 z"
         id="path6321"
         style="fill:#fcdb00;fill-opacity:1;fill-rule:evenodd;stroke:#fcdb00;stroke-width:0.12;stroke-linecap:round;stroke-linejoin:round;stroke-miterlimit:10;stroke-dasharray:none;stroke-opacity:1" />
      <path
         d="M 389.86,149.23 L 389.86,153.82 L 393.67,153.82 L 395.63,149.23 L 389.86,149.23 z"
         id="path6323"
         style="fill:#fcdb00;fill-opacity:1;fill-rule:evenodd;stroke:#fcdb00;stroke-width:0.12;stroke-linecap:round;stroke-linejoin:round;stroke-miterlimit:10;stroke-dasharray:none;stroke-opacity:1" />
    </g>
  </g>
</svg>
<!-- version: 20080810, original size: 79.375 89.275002, border: 3% -->
